src/icons/solid/duplicate.svg

<svg width="20" height="20" viewBox="0 0 20 20" fill="none" xmlns="http://www.w3.org/2000/svg">

<path d="M7 9C7 7.89543 7.89543 7 9 7H15C16.1046 7 17 7.89543 17 9V15C17 16.1046 16.1046 17 15 17H9C7.89543 17 7 16.1046 7 15V9Z" fill="#4A5568"/>
<path d="M5 3C3.89543 3 3 3.89543 3 5V11C3 12.1046 3.89543 13 5 13L5 5H13C13 3.89543 12.1046 3 11 3H5Z" fill="#4A5568"/>
</svg>

<svg xmlns="http://www.w3.org/2000/svg" viewBox="0 0 20 20" fill="currentColor">
  <path d="M7 9a2 2 0 012-2h6a2 2 0 012 2v6a2 2 0 01-2 2H9a2 2 0 01-2-2V9z"/>
  <path d="M5 3a2 2 0 00-2 2v6a2 2 0 002 2V5h8a2 2 0 00-2-2H5z"/>
</svg>
